X: 29417
T: Niel Gow's Lament For His Second Wife
R: jig
M: 6/8
K: Dmajor
B,G,|A,3B, D2|D4ED|E2F2A2|B4d2|A3F D2|E3 D E2|F2D2B,2|B,4 B,G,|
A,3B, D2|D4ED|E2F2A2|d4 cB|A3FD2|=C2 B,2 A,2|B,(DD2) =C2|D4:|
(3ABc|d3 f d2|e2c2A2|BA Bc d2|BA GF ED|E3 D E2|F3 E D2|F2 D2 B,2|B,4 (3ABc|
d3 f d2|e2c2A2|BA Bc d2|BA GF ED|E3 D E2|F2 E2 D2|B,(DD2) =C2|D4 (3ABc|
d3 f d2|e2c2A2|BA Bc d2|BA GF ED|FD AF dA|BA GF ED|F2 E2 E2|E4 DB,|
A,3B, D2|D4ED|E2F2A2|d4 cB|A3FD2|=C2 B,2 A,2|B,(DD2) =C2|[D4 A,4]:|

